assets/Chart increasing/Flat/chart_increasing_flat.svg

<svg width="32" height="32" viewBox="0 0 32 32" fill="none" xmlns="http://www.w3.org/2000/svg">
<path d="M2 6C2 3.79086 3.79086 2 6 2H26C27.6999 2 29.1521 3.06033 29.7313 4.55565L29.1461 6.33236L30 7.17778V26C30 28.2091 28.2091 30 26 30H6C4.11588 30 2.53602 28.6973 2.11192 26.9435L2.78222 25.0512L2 24.3404V6Z" fill="#E1D8EC"/>
<path d="M10 11V21H2V22H10V30H11V22H21V30H22V22H30V21H22V11H30V10H22V2H21V10H11V2H10V10H2V11H10ZM11 11H21V21H11V11Z" fill="#B4ACBC"/>
<path d="M2.11995 26.9761C2.0416 26.6637 2 26.3367 2 26V24.2988L9.06209 17.3261C9.90713 16.4917 11.2618 16.4786 12.1229 17.2964L14.2711 19.3369C14.4679 19.5238 14.7779 19.5196 14.9696 19.3273L29.7216 4.53076C29.9013 4.98559 30 5.48125 30 5.99997V7.18702L16.1318 20.9016C15.2906 21.7334 13.9423 21.7512 13.0796 20.9417L10.9297 18.9247C10.7335 18.7406 10.4268 18.7448 10.2357 18.9342L2.11995 26.9761Z" fill="#F92F60"/>
</svg>

<svg xmlns="http://www.w3.org/2000/svg" width="32" height="32" fill="none"><path fill="#E1D8EC" d="M2 6a4 4 0 0 1 4-4h20c1.7 0 3.152 1.06 3.731 2.556l-.585 1.776.854.846V26a4 4 0 0 1-4 4H6a4.002 4.002 0 0 1-3.888-3.056l.67-1.893-.782-.71V6Z"/><path fill="#B4ACBC" d="M10 11v10H2v1h8v8h1v-8h10v8h1v-8h8v-1h-8V11h8v-1h-8V2h-1v8H11V2h-1v8H2v1h8Zm1 0h10v10H11V11Z"/><path fill="#F92F60" d="M2.12 26.976A4.008 4.008 0 0 1 2 26v-1.701l7.062-6.973a2.2 2.2 0 0 1 3.06-.03l2.15 2.04a.5.5 0 0 0 .698-.009L29.722 4.531c.18.455.278.95.278 1.469v1.187L16.132 20.902a2.2 2.2 0 0 1-3.052.04l-2.15-2.017a.5.5 0 0 0-.694.01L2.12 26.975Z"/></svg>
